X:1
T:Zie de zon, zie de maan
T:LvdK2013 8b
C:t: Rikkert Zuiderveld
C:m: Rikkert Zuiderveld
C:v:
L:1/8
M:4/4
K:C
EF G2 DE F2 |$
EF GG DE F2 |$
A2 GF G2 E2 | E>F ED C4 |$
AA AA AA A>G | G4 z4 |$
A2 z c cB AB | c4 z4 |]

